X:1
T:Tu traditora
T:Tu traditora
T:Orlande de Lassus
C:Orlande de Lassus
%%score [ 1 [ 2 3 ] 4 ]
L:1/8
Q:1/4=68
M:2/2
K:F
V:1 treble nm="Superius" snm="S"
V:2 treble-8 nm="Tenor 1" snm="T 1"
V:3 treble-8 nm="Tenor 2" snm="T 2"
V:4 bass nm="Bassus" snm="B"
V:1
 z ^FF>G AB B2 | B A2 c B2 A2 :| z GGF GDD>E | F F2 E F2 z G | G>AB B2 A B2 | B2 A>G AG c2 | %6
w: Tu tra- di- to- ra m'hai|puo- st'a sto co- re,|1)no fo- co- la- ro di fiam-|ma'e di fo- co, e-|mo, e- mo ca- naz- za,|e- mo ca- naz- za me|
w: ||||||
w: ||2)et en- ce tan- ta bra- scia'e|tan- to'ar- do- re, ch'u-|no'a- ci- no,- ch'u- no'a- ci-|no di mi- glio non ce|
w: ||3)e sen- to- ci quel- lo'a fi-|no d'a- mo- re, che|sem- pre a- tiz- za, che|sem- pre at- tiz- za co-|
w: ||4)pro- me- de- ci ti di- co'e|non tar- da- re, ca|non e co- sa da chiu|com- por- ta- re, da chiu|
 BB>A G2 F G2 | z GG>A B B2 A | B2 B2 A>GAG | c2 BB>A G2 F | G8 |] %11
w: la miet- t'in- gio- * co,|e- mo, e- mo ca- naz-|za, e- mo ca- naz- za|me la miet- t'in gio- *|co.|
w: ||(4)si- to a- * * bru-|scia- re, a- bru- scia- *|re.|
w: ha luo- * * * co,|||||
w: me fos- se cuo- * co,|||||
w: com- por- * ta- * re,|far mi sen- za pro- po-||||
V:2
 z dd>e ff f2 | f f2 f d>e f2 :| z _edd BBBA | dd c2 c2 z _e | _eeff f2 d2 | f2 f>d fee>f | %6
w: Tu tra- di- to- ra m'hai|puo- st'a sto co- * re,|1)no fa- co- la- ro di fiam-|ma'e di fo- co, e-|mo, e- mo ca- naz- za,-|e- mo ca- naz- za me la|
w: ||||||
w: ||2)et en- ce tan- ta bra- scia'e|tan- to'ar- do- re, ch'u-|no'a- ci- no,- ch'u- no'a- ci-|no di mi- glio non ce ha|
w: ||3)e sen- to- ci quel- lo'a fi-|no d'a- mo- re, che|sem- pre a tiz- za, che|sem- pre a- tiz- za co- me|
w: ||4)pro- me- de- ci ti di- co'e|non tar- da- re, ca|non a co- sa de chiu|com- por- ta- re, da chiu com-|
 g3/2f/4e/4d_e d2 d2 | z _eee ff f2 | d2 f2 f>dfe | e>fg3/2 f/4e/4 de d2 | d8 |] %11
w: miet- * * * t'in gio- co,|e- mo, e- mo ca- naz-|za, e- mo ca- naz- za|me la miet- * * * t'in gio-|co.|
w: ||(4)si- to a bru- scia re,|a- bru- scia- * * * * *|re.|
w: luo- * * * * * co.|||||
w: fos- * * * se cuo- co.|||||
w: por- * * * ta- * re,|far mi sen- za pro- po-||||
V:3
 z AA>B cd d2 | d c2 A B2 c2 :| z cBA GFF>G | AB G2 A2 z B | B>cdd c2 B2 | d2 c>B c2 G2 | %6
w: Tu tra- di- to- ra m'hai|puo- st'a sto co- re,|1)no fa- co- la- ro di fiam-|ma'e di fo- co, e-|mo, e- mo ca- naz- za,|e mo ca- naz- za|
w: ||||||
w: ||2)et en- ce tan- ta bra- scia'e|tan- to'ar- do- re, ch'u-|no'a- ci- no, ch'u- no'a- ci-|no di mi- glio non|
w: ||3)e sen- to- ci quel- lo'a fi-|no d'a- mo- re, che|sem- pre a- tiz- za, che|sem- pre a- tiz- za|
w: ||4)pro- me- de- ci ti di- co'e|non tar- da- re, ca|non a co- sa de chiu|com- por- ta- re, da|
 G>ABc A2 G2 | z BB>c dd c2 | B2 d2 c>B c2 | G2 G>A Bc A2 | =B8 |] %11
w: ma la miet- t'in gio- co,|e- mo, e- mo ca- naz-|za, e- mo ca- naz-|za me la miet- t'in gio-|co.|
w: ||(4)si- to a bru- scia-|re, a- bru- scia- * *|re.|
w: ce ha luo- * * co,|||||
w: co- me fos- se cuo- co.|||||
w: chiu _ com- por- ta- re,|far mi sen- za pro- po-||||
V:4
 z D,D,>G, F,B, B,2 | B,, F,2 F, G,2 F,2 :| z C,G,D, _E,B,,B,,D, | D,B,, C,2 F,2 z _E, | %4
w: Tu tra- di- to- ra m'hai|puo- st'a sto co- re,|1)no fa- co- la- ro di fiam-|ma'e di fo- co, e-|
w: ||||
w: ||2)et en- ce tan- ta bra- sca'e|tan- to'ar- do- re, ch'u-|
w: ||3)e- sen- to- ci quel- lo'a fi-|no d'a- mo- re, che|
w: ||4)pro- me- de- ci ti di- co'e|non tar- da- re, ca|
 _E,E,B,,B,, F,2 B,,2 | B,2 F,>G, F,C,C,>D, | _E,>F,G,C, D,2 G,,2 |"^#" z _E,E,E, B,,B,, F,2 | %8
w: mo, e- mo ca- naz- za,|e- mo ca- naz- za me la|miet- * * t'in gio- co,|e- mo, e- mo ca- naz-|
w: ||||
w: no'a- ci- no, ch'u- no'a- ci-|no di mi- glio non ce ha|luo- * * * * co,||
w: sem- pre a- tiz- za, che|sem- pre a- tiz- za co- me|fos- * * se cuo- co,||
w: non a co- sa de chiu|com- por- ta- re, da chiu com-|por- * * ta- * re,|far mi sen- za pro- po-|
 B,,2 B,2 F,>G,F,C, | C,>D,_E,>F, G,C, D,2 | G,,8 |] %11
w: za, e- mo ca- naz- za|me le miet- * * t'in gio-|co.|
w: (4)si- to a bru- scia- re,|a- bru- scia- * * * *|re.|
w: |||
w: |||
w: |||

